svg/color/agi.svg

<svg width="64" height="65" viewBox="0 0 64 65" fill="none" xmlns="http://www.w3.org/2000/svg">
<rect x="0.00537109" y="0.303711" width="64" height="64" rx="32" fill="black"/>
<rect x="0.505371" y="0.803711" width="63" height="63" rx="31.5" stroke="white" stroke-opacity="0.15"/>
<path d="M42.934 15.6345C42.934 15.3325 42.6442 14.8753 42.3666 14.7488C37.4443 12.4754 32.5057 10.2265 27.5508 8.01435C27.2161 7.86334 26.6692 7.87966 26.3508 8.05517C24.808 8.89595 23.3142 9.83062 21.7918 10.7041C21.2041 11.0428 21 11.4714 21 12.1734C21.0327 18.9079 21.0204 25.6423 21.0204 32.3768C21.0204 39.1113 21.0286 45.8457 21.0082 52.5802C21.0082 53.2536 21.1347 53.6904 21.8081 54.025C22.8693 54.5475 23.9183 55.1393 24.8611 55.8536C26.2774 56.9311 27.5181 56.927 29.1507 56.1148C33.3955 54.0006 37.7668 52.1353 42.085 50.168C42.5829 49.9436 42.9829 49.7272 42.9789 49.0007C42.9503 37.8787 42.9625 26.7566 42.934 15.6345ZM26.0406 10.2673V12.1693C25.3631 11.9652 24.7672 11.7816 23.9468 11.5326C24.7264 11.0591 25.3509 10.6836 26.0406 10.2673ZM26.0406 54.4863C25.3386 54.0659 24.7631 53.723 23.9795 53.2577C24.7999 52.9679 25.3835 52.7639 26.0406 52.5353V54.4903V54.4863ZM24.808 51.1353C24.1917 51.27 23.604 51.5394 22.902 51.7802V13.055C22.9795 13.0387 23.0163 13.0223 23.0448 13.0305C25.0693 13.6128 26.0815 14.9543 26.0815 17.0549C26.0815 27.83 26.0651 38.6052 26.11 49.3803C26.1141 50.4292 25.7917 50.9231 24.804 51.1394L24.808 51.1353ZM27.91 11.8632C27.9794 11.3326 27.9222 10.7816 27.9222 10.0592C31.7956 11.8183 35.5546 13.5244 39.481 15.308C37.9913 16.0222 36.7505 16.2916 35.326 15.6835C33.2486 14.7978 31.1058 14.0468 28.9589 13.3407C28.1467 13.0754 27.7998 12.7162 27.91 11.8632ZM35.9505 30.732C35.9505 35.8665 35.9424 41.0051 35.9628 46.1396C35.9628 46.7396 35.8893 47.1477 35.2363 47.3722C32.9302 48.1681 30.6405 49.013 28.3385 49.8334C28.2528 49.866 28.1426 49.8252 27.9834 49.817V14.7937C30.5017 15.7039 32.9384 16.61 35.3954 17.4589C36.0485 17.6834 35.9505 18.1324 35.9505 18.5895C35.9505 22.6383 35.9505 26.6831 35.9505 30.732ZM27.9263 54.7352C27.9263 53.7598 27.8855 52.9924 27.9508 52.2333C27.9671 52.021 28.2651 51.7435 28.4936 51.6578C31.1507 50.6578 33.7914 49.5885 36.5097 48.7762C37.326 48.5314 38.3668 49.0334 39.3055 49.1926C39.3055 49.3068 39.3096 49.4211 39.3137 49.5354C35.5832 51.2415 31.8527 52.9435 27.9263 54.7352ZM41.0524 47.9151C40.9259 47.9314 40.8891 47.9477 40.8565 47.9395C38.8103 47.4797 37.7872 46.2131 37.7872 44.1397C37.7872 35.6828 37.7994 27.2259 37.7668 18.7691C37.7668 17.9814 37.9749 17.5936 38.7341 17.4263C39.4892 17.2589 40.2238 17.0018 41.0524 16.7651V47.9151Z" fill="white"/>
</svg>

<svg xmlns="http://www.w3.org/2000/svg" width="64" height="65" fill="none" viewBox="0 0 64 65"><rect width="64" height="64" x=".005" y=".304" fill="#000" rx="32"/><rect width="63" height="63" x=".505" y=".804" stroke="#fff" stroke-opacity=".15" rx="31.5"/><path fill="#fff" d="M42.934 15.635c0-.303-.29-.76-.567-.886a1267 1267 0 0 0-14.816-6.735c-.335-.15-.882-.134-1.2.041-1.543.84-3.037 1.776-4.56 2.65-.587.338-.791.766-.791 1.468.033 6.735.02 13.47.02 20.204s.009 13.469-.012 20.203c0 .674.127 1.11.8 1.445 1.061.523 2.11 1.114 3.053 1.829 1.416 1.077 2.657 1.073 4.29.26 4.244-2.113 8.616-3.979 12.934-5.946.498-.224.898-.44.894-1.167-.029-11.122-.017-22.244-.045-33.366m-16.893-5.368v1.902c-.678-.204-1.274-.387-2.094-.636.78-.474 1.404-.85 2.094-1.266m0 44.22a669 669 0 0 0-2.061-1.23c.82-.29 1.404-.493 2.06-.722v1.955zm-1.233-3.352c-.616.135-1.204.404-1.906.645V13.055c.078-.016.114-.033.143-.024q3.036.873 3.036 4.024c0 10.775-.016 21.55.029 32.325.004 1.05-.318 1.543-1.306 1.76zm3.102-39.272c.07-.53.012-1.081.012-1.804 3.874 1.76 7.633 3.465 11.559 5.249-1.49.714-2.73.984-4.155.376-2.077-.886-4.22-1.637-6.367-2.343-.812-.266-1.16-.625-1.049-1.478m8.04 18.869c0 5.135-.008 10.273.013 15.408 0 .6-.074 1.008-.727 1.232-2.306.796-4.595 1.641-6.897 2.461-.086.033-.196-.008-.356-.016V14.794c2.519.91 4.955 1.816 7.412 2.665.653.224.555.673.555 1.13zm-8.024 24.003c0-.975-.04-1.743.025-2.502.016-.212.314-.49.543-.575 2.657-1 5.297-2.07 8.016-2.882.816-.245 1.857.257 2.796.417q.001.171.008.342c-3.73 1.707-7.461 3.409-11.388 5.2m13.126-6.82c-.126.016-.163.033-.196.025q-3.069-.69-3.069-3.8c0-8.457.012-16.914-.02-25.37 0-.789.208-1.176.967-1.344.755-.167 1.49-.424 2.318-.66z"/></svg>
